apps/scalable/k3b.svg

<svg xmlns="http://www.w3.org/2000/svg" style="isolation:isolate" width="256" height="256"><defs><filter id="a" width="270.648" height="254.338" x="-7.32" y="2.95" filterUnits="userSpaceOnUse"><feGaussianBlur xmlns="http://www.w3.org/2000/svg" in="SourceGraphic" stdDeviation="4.294"/><feOffset xmlns="http://www.w3.org/2000/svg" dy="4" result="pf_100_offsetBlur"/><feFlood xmlns="http://www.w3.org/2000/svg" flood-opacity=".4"/><feComposite xmlns="http://www.w3.org/2000/svg" in2="pf_100_offsetBlur" operator="in" result="pf_100_dropShadow"/><feBlend xmlns="http://www.w3.org/2000/svg" in="SourceGraphic" in2="pf_100_dropShadow"/></filter></defs><path fill="#BC1938" d="M165.685 11.947c74.055 0 84.639 10.557 84.639 84.544v59.251c0 73.986-10.584 84.543-84.639 84.543h-75.37c-74.055 0-84.639-10.557-84.639-84.543V96.491c0-73.987 10.584-84.544 84.639-84.544h75.37z" filter="url(#a)"/><g opacity=".4"><linearGradient id="b" x1=".517" x2=".517" y2="1"><stop offset="0%" stop-color="#fff"/><stop offset="12.5%" stop-opacity=".098" stop-color="#fff"/><stop offset="92.5%" stop-opacity=".098"/><stop offset="100%" stop-opacity=".498"/></linearGradient><path fill="none" stroke="url(#b)" stroke-linecap="round" stroke-linejoin="round" stroke-width="4.077" d="M165.685 11.947c74.055 0 84.639 10.557 84.639 84.544v59.251c0 73.986-10.584 84.543-84.639 84.543h-75.37c-74.055 0-84.639-10.557-84.639-84.543V96.491c0-73.987 10.584-84.544 84.639-84.544h75.37z" vector-effect="non-scaling-stroke"/></g><path fill="#FFF" d="M5.676 126.116v29.626c0 73.986 10.584 84.543 84.639 84.543h75.37c74.055 0 84.639-10.557 84.639-84.543v-29.626H5.676z" opacity=".1"/><path fill="#FFF" d="M128 11.947v228.338h37.685c74.055 0 84.639-10.557 84.639-84.543V96.491c0-73.987-10.584-84.544-84.639-84.544H128z" opacity=".2"/><path fill-rule="evenodd" d="M56.934 97.622v14.647l75.77.701V97.622h-31.532l32.006-23.21-.277-16.171-38.555 27.56-37.412-27.384.041 16.158 30.129 23.209-30.17-.162zM57.211 120.191v79.71h14.681v-79.71H57.211zM87.242 120.541v79.71h14.681v-79.71H87.242zM117.55 120.396v79.71h14.681v-79.71H117.55z" opacity=".2"/><path d="M147.052 199.731l-.335-79.286 26.716.35c12.906 0 20.364 12.165 20.699 18.29.196 4.723.498 7.688-1.479 11.206-1.469 2.22-2.421 4.421-6.638 6.146 4.726 1.488 5.948 2.888 8.112 5.48 2.753 3.631 4.939 8.319 4.939 14.847 0 5.885-1.057 11.834-4.844 16.098-3.425 3.179-9.369 6.519-15.823 6.519l-31.347.35zm15.996-48.734h8.459c3.679 0 6.26-2.675 7.072-4.348.589-1.29.758-3.007.59-4.714-.335-3.054-1.104-3.756-2.223-4.731-1.17-.893-3.474-2.171-6.241-2.084l-7.657.175v15.702zm-.335 34.229l8.497.35c5.156 0 7.93-1.743 9.996-3.13 2.095-1.421 2.807-4.99 2.807-6.859 0-2.873-1.066-5.403-2.529-6.539-2.773-2.537-6.283-3.455-10.529-3.455h-7.907l-.335 19.633zM146.539 58.118v54.915h52.527V58.118h-52.527z" opacity=".2"/><path fill="#FFF" fill-rule="evenodd" d="M56.934 95.252V109.9l75.77.7V95.252h-31.532l32.006-23.209-.277-16.172-38.555 27.561-37.412-27.385.041 16.158 30.129 23.21-30.17-.162v-.001zM57.211 117.822v79.709h14.681v-79.709H57.211zM87.242 118.172v79.71h14.681v-79.71H87.242zM117.55 118.027v79.71h14.681v-79.71H117.55z"/><path fill="#FFF" d="M147.052 197.362l-.335-79.286 26.716.35c12.906 0 20.364 12.165 20.699 18.289.196 4.723.498 7.689-1.479 11.206-1.469 2.221-2.421 4.422-6.638 6.147 4.726 1.488 5.948 2.888 8.112 5.48 2.753 3.631 4.939 8.319 4.939 14.847 0 5.884-1.057 11.834-4.844 16.097-3.425 3.179-9.369 6.52-15.823 6.52l-31.347.35zm15.996-48.735h8.459c3.679 0 6.26-2.674 7.072-4.348.589-1.289.758-3.006.59-4.714-.335-3.054-1.104-3.755-2.223-4.73-1.17-.894-3.474-2.172-6.241-2.084l-7.657.175v15.701zm-.335 34.23l8.497.35c5.156 0 7.93-1.744 9.996-3.13 2.095-1.421 2.807-4.991 2.807-6.859 0-2.874-1.066-5.403-2.529-6.54-2.773-2.536-6.283-3.455-10.529-3.455h-7.907l-.335 19.634zM146.539 55.749v54.915h52.527V55.749h-52.527z"/></svg>

<svg xmlns="http://www.w3.org/2000/svg" style="isolation:isolate" width="256" height="256" viewBox="0 0 256 256">
 <defs>
  <filter id="TKArBixM8094LXkqVoqCSPZ0XcssEKIC" width="270.648" height="254.338" x="-7.32" y="2.95" filterUnits="userSpaceOnUse">
   <feGaussianBlur xmlns="http://www.w3.org/2000/svg" in="SourceGraphic" stdDeviation="4.294"/>
   <feOffset xmlns="http://www.w3.org/2000/svg" dx="0" dy="4" result="pf_100_offsetBlur"/>
   <feFlood xmlns="http://www.w3.org/2000/svg" flood-opacity=".4"/>
   <feComposite xmlns="http://www.w3.org/2000/svg" in2="pf_100_offsetBlur" operator="in" result="pf_100_dropShadow"/>
   <feBlend xmlns="http://www.w3.org/2000/svg" in="SourceGraphic" in2="pf_100_dropShadow" mode="normal"/>
  </filter>
 </defs>
 <g filter="url(#TKArBixM8094LXkqVoqCSPZ0XcssEKIC)">
  <path fill="#BC1938" d="M 165.685 11.947 C 239.74 11.947 250.324 22.504 250.324 96.491 L 250.324 155.742 C 250.324 229.728 239.74 240.285 165.685 240.285 L 90.315 240.285 C 16.26 240.285 5.676 229.728 5.676 155.742 L 5.676 96.491 C 5.676 22.504 16.26 11.947 90.315 11.947 L 165.685 11.947 Z"/>
 </g>
 <g opacity=".4">
  <linearGradient id="_lgradient_26" x1=".517" x2=".517" y1="0" y2="1">
   <stop offset="0%" style="stop-color:rgb(255,255,255)"/>
   <stop offset="12.5%" stop-opacity=".098" style="stop-color:rgb(255,255,255)"/>
   <stop offset="92.5%" stop-opacity=".098" style="stop-color:rgb(0,0,0)"/>
   <stop offset="100%" stop-opacity=".498" style="stop-color:rgb(0,0,0)"/>
  </linearGradient>
  <path fill="none" stroke="url(#_lgradient_26)" stroke-linecap="round" stroke-linejoin="round" stroke-width="4.077" d="M 165.685 11.947 C 239.74 11.947 250.324 22.504 250.324 96.491 L 250.324 155.742 C 250.324 229.728 239.74 240.285 165.685 240.285 L 90.315 240.285 C 16.26 240.285 5.676 229.728 5.676 155.742 L 5.676 96.491 C 5.676 22.504 16.26 11.947 90.315 11.947 L 165.685 11.947 Z" vector-effect="non-scaling-stroke"/>
 </g>
 <g opacity=".1">
  <path fill="#FFFFFF" d="M 5.676 126.116 L 5.676 155.742 C 5.676 229.728 16.26 240.285 90.315 240.285 L 165.685 240.285 C 239.74 240.285 250.324 229.728 250.324 155.742 L 250.324 126.116 L 5.676 126.116 Z"/>
 </g>
 <g opacity=".2">
  <path fill="#FFFFFF" d="M 128 11.947 L 128 240.285 L 165.685 240.285 C 239.74 240.285 250.324 229.728 250.324 155.742 L 250.324 96.491 C 250.324 22.504 239.74 11.947 165.685 11.947 L 128 11.947 Z"/>
 </g>
 <g>
  <g opacity=".2">
   <path fill-rule="evenodd" d="M 56.934 97.622 L 56.934 112.269 L 132.704 112.97 L 132.704 97.622 L 101.172 97.622 L 133.178 74.412 L 132.901 58.241 L 94.346 85.801 L 56.934 58.417 L 56.975 74.575 L 87.104 97.784 L 56.934 97.622 L 56.934 97.622 Z"/>
  </g>
  <g opacity=".2">
   <path fill-rule="evenodd" d="M 57.211 120.191 L 57.211 199.901 L 71.892 199.901 L 71.892 120.191 L 57.211 120.191 Z"/>
  </g>
  <g opacity=".2">
   <path fill-rule="evenodd" d="M 87.242 120.541 L 87.242 200.251 L 101.923 200.251 L 101.923 120.541 L 87.242 120.541 Z"/>
  </g>
  <g opacity=".2">
   <path fill-rule="evenodd" d="M 117.55 120.396 L 117.55 200.106 L 132.231 200.106 L 132.231 120.396 L 117.55 120.396 Z"/>
  </g>
  <g opacity=".2">
   <path d="M 147.052 199.731 L 146.717 120.445 L 173.433 120.795 C 186.339 120.795 193.797 132.96 194.132 139.085 C 194.328 143.808 194.63 146.773 192.653 150.291 C 191.184 152.511 190.232 154.712 186.015 156.437 C 190.741 157.925 191.963 159.325 194.127 161.917 C 196.88 165.548 199.066 170.236 199.066 176.764 C 199.066 182.649 198.009 188.598 194.222 192.862 C 190.797 196.041 184.853 199.381 178.399 199.381 L 147.052 199.731 L 147.052 199.731 Z M 163.048 150.997 L 171.507 150.997 C 175.186 150.997 177.767 148.322 178.579 146.649 C 179.168 145.359 179.337 143.642 179.169 141.935 C 178.834 138.881 178.065 138.179 176.946 137.204 C 175.776 136.311 173.472 135.033 170.705 135.12 L 163.048 135.295 L 163.048 150.997 L 163.048 150.997 Z M 162.713 185.226 L 171.21 185.576 C 176.366 185.576 179.14 183.833 181.206 182.446 C 183.301 181.025 184.013 177.456 184.013 175.587 C 184.013 172.714 182.947 170.184 181.484 169.048 C 178.711 166.511 175.201 165.593 170.955 165.593 L 163.048 165.593 L 162.713 185.226 L 162.713 185.226 Z"/>
  </g>
  <g opacity=".2">
   <path d="M 146.539 58.118 L 146.539 113.033 L 199.066 113.033 L 199.066 58.118 L 146.539 58.118 Z"/>
  </g>
  <path fill="#FFFFFF" fill-rule="evenodd" d="M 56.934 95.252 L 56.934 109.9 L 132.704 110.6 L 132.704 95.252 L 101.172 95.252 L 133.178 72.043 L 132.901 55.871 L 94.346 83.432 L 56.934 56.047 L 56.975 72.205 L 87.104 95.415 L 56.934 95.253 L 56.934 95.252 Z"/>
  <path fill="#FFFFFF" fill-rule="evenodd" d="M 57.211 117.822 L 57.211 197.531 L 71.892 197.531 L 71.892 117.822 L 57.211 117.822 Z"/>
  <path fill="#FFFFFF" fill-rule="evenodd" d="M 87.242 118.172 L 87.242 197.882 L 101.923 197.882 L 101.923 118.172 L 87.242 118.172 Z"/>
  <path fill="#FFFFFF" fill-rule="evenodd" d="M 117.55 118.027 L 117.55 197.737 L 132.231 197.737 L 132.231 118.027 L 117.55 118.027 Z"/>
  <path fill="#FFFFFF" d="M 147.052 197.362 L 146.717 118.076 L 173.433 118.426 C 186.339 118.426 193.797 130.591 194.132 136.715 C 194.328 141.438 194.63 144.404 192.653 147.921 C 191.184 150.142 190.232 152.343 186.015 154.068 C 190.741 155.556 191.963 156.956 194.127 159.548 C 196.88 163.179 199.066 167.867 199.066 174.395 C 199.066 180.279 198.009 186.229 194.222 190.492 C 190.797 193.671 184.853 197.012 178.399 197.012 L 147.052 197.362 L 147.052 197.362 Z M 163.048 148.627 L 171.507 148.627 C 175.186 148.627 177.767 145.953 178.579 144.279 C 179.168 142.99 179.337 141.273 179.169 139.565 C 178.834 136.511 178.065 135.81 176.946 134.835 C 175.776 133.941 173.472 132.663 170.705 132.751 L 163.048 132.926 L 163.048 148.627 L 163.048 148.627 Z M 162.713 182.857 L 171.21 183.207 C 176.366 183.207 179.14 181.463 181.206 180.077 C 183.301 178.656 184.013 175.086 184.013 173.218 C 184.013 170.344 182.947 167.815 181.484 166.678 C 178.711 164.142 175.201 163.223 170.955 163.223 L 163.048 163.223 L 162.713 182.857 L 162.713 182.857 Z"/>
  <path fill="#FFFFFF" d="M 146.539 55.749 L 146.539 110.664 L 199.066 110.664 L 199.066 55.749 L 146.539 55.749 Z"/>
 </g>
</svg>
